icons/woozy_fill.svg

<svg width="48" height="48" viewBox="0 0 48 48" fill="none" xmlns="http://www.w3.org/2000/svg">
<path d="M30.5 26C31.8807 26 33 24.2091 33 22C33 19.7909 31.8807 18 30.5 18C29.1193 18 28 19.7909 28 22C28 24.2091 29.1193 26 30.5 26Z" fill="black"/>
<path d="M14.7428 22.3501C14.6238 23.0878 15.1242 23.7953 15.8073 24.2328C16.5211 24.6899 17.5386 24.9399 18.7371 24.7629C19.983 24.579 20.8685 23.8877 21.3905 23.0975C21.8949 22.3341 22.1025 21.4046 21.8708 20.7158C21.8163 20.554 21.6831 20.4311 21.5174 20.39C21.3517 20.3488 21.1764 20.3951 21.0526 20.5126C19.2567 22.2174 17.2288 22.6361 15.4105 21.9611C15.2702 21.909 15.114 21.9225 14.9847 21.9978C14.8554 22.0731 14.7667 22.2024 14.7428 22.3501Z" fill="black"/>
<path fill-rule="evenodd" clip-rule="evenodd" d="M16.5922 31.381L16.594 31.3798L16.6219 31.3631C16.6475 31.3479 16.6891 31.3237 16.7453 31.2929C16.8579 31.2313 17.0274 31.1438 17.2425 31.0485C17.6761 30.8564 18.2757 30.6411 18.9541 30.5337C20.2808 30.3236 21.8743 30.518 23.2331 32.1418C25.1584 34.4426 27.5357 34.7305 29.3588 34.4418C30.2552 34.2998 31.0253 34.0204 31.5676 33.7802C31.8405 33.6593 32.0605 33.5462 32.2155 33.4613C32.2931 33.4188 32.3547 33.3832 32.3989 33.3569L32.4252 33.3412L32.452 33.3249L32.4684 33.3147L32.4741 33.3112L32.4763 33.3098L32.478 33.3087C32.8345 33.0821 33.0102 32.6559 32.917 32.2439C32.8237 31.8319 32.4816 31.5229 32.0622 31.472L24.4983 30.5532C22.6239 28.5322 20.3804 28.2829 18.6412 28.5583C17.7448 28.7003 16.9747 28.9797 16.4324 29.2199C16.1595 29.3409 15.9395 29.454 15.7845 29.5388C15.7069 29.5813 15.6453 29.617 15.6011 29.6432C15.5983 29.6448 15.5957 29.6464 15.593 29.648C15.5746 29.6589 15.5596 29.6681 15.548 29.6752L15.5316 29.6854L15.5259 29.689L15.5237 29.6903L15.522 29.6914C15.0559 29.9877 14.9182 30.6057 15.2144 31.0718C15.5101 31.537 16.1263 31.6751 16.5922 31.381ZM31.9416 32.4647L32.478 33.3087C32.478 33.3087 32.478 33.3087 31.9416 32.4647Z" fill="black"/>
<path fill-rule="evenodd" clip-rule="evenodd" d="M42 24C42 33.9411 33.9411 42 24 42C14.0589 42 6 33.9411 6 24C6 14.0589 14.0589 6 24 6C33.9411 6 42 14.0589 42 24ZM40 24C40 32.8366 32.8366 40 24 40C15.1634 40 8 32.8366 8 24C8 15.1634 15.1634 8 24 8C32.8366 8 40 15.1634 40 24Z" fill="black"/>
</svg>

<svg
  xmlns="http://www.w3.org/2000/svg"
  width="24"
  height="24"
  viewBox="0 0 24 24"
  fill="none"
  stroke="currentColor"
  stroke-width="2"
  stroke-linecap="round"
  stroke-linejoin="round"
>
  <path d="M30.5 26c1.38 0 2.5-1.79 2.5-4s-1.12-4-2.5-4-2.5 1.79-2.5 4 1.12 4 2.5 4" />
  <path d="M14.743 22.35c-.12.738.381 1.445 1.064 1.883.714.457 1.732.707 2.93.53a3.8 3.8 0 0 0 2.654-1.666c.504-.763.712-1.692.48-2.381a.5.5 0 0 0-.818-.203c-1.796 1.704-3.824 2.123-5.642 1.448a.5.5 0 0 0-.668.39" />
  <path
    fill-rule="evenodd"
    d="m16.592 31.381.002-.001.028-.017q.039-.024.123-.07a6.998 6.998 0 0 1 2.209-.76c1.327-.21 2.92-.015 4.28 1.609 1.924 2.3 4.302 2.588 6.125 2.3a9 9 0 0 0 3.04-1.085l.026-.016.027-.016.016-.01.006-.004.002-.001.002-.001a1 1 0 0 0-.416-1.837l-7.564-.919c-1.874-2.02-4.118-2.27-5.857-1.995a9 9 0 0 0-3.04 1.085l-.008.005-.045.027-.016.01-.006.004-.002.001-.002.001a1 1 0 0 0 1.07 1.69m15.35 1.084.536.844z"
    clip-rule="evenodd"
  />
  <path
    fill-rule="evenodd"
    d="M42 24c0 9.941-8.059 18-18 18S6 33.941 6 24 14.059 6 24 6s18 8.059 18 18m-2 0c0 8.837-7.163 16-16 16S8 32.837 8 24 15.163 8 24 8s16 7.163 16 16"
    clip-rule="evenodd"
  />
</svg>
